static/assets/img/icons/theme/shopping/atm.svg

<svg height="24" viewBox="0 0 24 24" width="24" xmlns="http://www.w3.org/2000/svg"><g fill="none" fill-rule="evenodd"><path d="m0 0h24v24h-24z" opacity="0"/><g fill="#000"><rect height="5" opacity=".3" rx="1" width="20" x="2" y="4"/><path d="m5 7h3v14h-1c-1.1045695 0-2-.8954305-2-2zm14 0v12c0 1.1045695-.8954305 2-2 2h-6v-14z"/></g></g></svg>

<svg width="24px" height="24px" viewBox="0 0 24 24" version="1.1" xmlns="http://www.w3.org/2000/svg" xmlns:xlink="http://www.w3.org/1999/xlink">
    <title>Icon For ATM</title>
    <g stroke="none" stroke-width="1" fill="none" fill-rule="evenodd">
        <rect opacity="0" x="0" y="0" width="24" height="24"></rect>
        <rect fill="#000000" opacity="0.3" x="2" y="4" width="20" height="5" rx="1"></rect>
        <path d="M5,7 L8,7 L8,21 L7,21 C5.8954305,21 5,20.1045695 5,19 L5,7 Z M19,7 L19,19 C19,20.1045695 18.1045695,21 17,21 L11,21 L11,7 L19,7 Z" fill="#000000"></path>
    </g>
</svg>
